Newaita-dark/actions/16/dialog-xml-editor.svg

<svg height="16" viewBox="0 0 16 16" width="16" xmlns="http://www.w3.org/2000/svg"><g fill="#e0e0e0"><path d="m9.503906.949219.636719.171875c.175781.046875.28125.226562.234375.402344l-3.59375 13.421874c-.050781.175782-.230469.28125-.40625.230469l-.640625-.167969c-.175781-.046874-.28125-.230468-.234375-.40625l3.597656-13.417968c.046875-.175782.226563-.28125.40625-.234375zm0 0"/><g fill-rule="evenodd"><path d="m5.09375 4.265625c-.125.003906-.246094.058594-.332031.148437l-3.308594 3.308594c-.1875.1875-.1875.492188 0 .683594l3.308594 3.308594c.121093.125.300781.171875.46875.128906s.300781-.175781.34375-.34375c.046875-.171875-.003907-.351562-.128907-.472656l-2.964843-2.964844 2.964843-2.964844c.144532-.140625.1875-.351562.109376-.535156-.078126-.183594-.261719-.300781-.460938-.296875zm0 0"/><path d="m10.78125 4.265625c.128906.003906.246094.058594.335938.148437l3.304687 3.308594c.191406.1875.191406.492188 0 .683594l-3.304687 3.308594c-.125.125-.304688.171875-.472657.128906s-.300781-.175781-.34375-.34375c-.042969-.171875.003907-.351562.128907-.472656l2.964843-2.964844-2.964843-2.964844c-.140626-.140625-.183594-.351562-.105469-.535156.074219-.183594.257812-.300781.457031-.296875zm0 0"/></g></g></svg>

<svg xmlns="http://www.w3.org/2000/svg" xmlns:xlink="http://www.w3.org/1999/xlink" width="16px" height="16px" viewBox="0 0 16 16" version="1.1">
<g id="surface1">
     <defs>
  <style id="current-color-scheme" type="text/css">
   .ColorScheme-Text { color:#eeeeee; } .ColorScheme-Highlight { color:#424242; }
  </style>
 </defs>
<path style="fill:currentColor" class="ColorScheme-Text" d="M 9.503906 0.949219 L 10.140625 1.121094 C 10.316406 1.167969 10.421875 1.347656 10.375 1.523438 L 6.78125 14.945312 C 6.730469 15.121094 6.550781 15.226562 6.375 15.175781 L 5.734375 15.007812 C 5.558594 14.960938 5.453125 14.777344 5.5 14.601562 L 9.097656 1.183594 C 9.144531 1.007812 9.324219 0.902344 9.503906 0.949219 Z M 9.503906 0.949219 "/>
<path style=" stroke:none;fill-rule:evenodd;fill:rgb(87.843138%,87.843138%,87.843138%);fill-opacity:1;" d="M 5.09375 4.265625 C 4.96875 4.269531 4.847656 4.324219 4.761719 4.414062 L 1.453125 7.722656 C 1.265625 7.910156 1.265625 8.214844 1.453125 8.40625 L 4.761719 11.714844 C 4.882812 11.839844 5.0625 11.886719 5.230469 11.84375 C 5.398438 11.800781 5.53125 11.667969 5.574219 11.5 C 5.621094 11.328125 5.570312 11.148438 5.445312 11.027344 L 2.480469 8.0625 L 5.445312 5.097656 C 5.589844 4.957031 5.632812 4.746094 5.554688 4.5625 C 5.476562 4.378906 5.292969 4.261719 5.09375 4.265625 Z M 5.09375 4.265625 "/>
<path style=" stroke:none;fill-rule:evenodd;fill:rgb(87.843138%,87.843138%,87.843138%);fill-opacity:1;" d="M 10.78125 4.265625 C 10.910156 4.269531 11.027344 4.324219 11.117188 4.414062 L 14.421875 7.722656 C 14.613281 7.910156 14.613281 8.214844 14.421875 8.40625 L 11.117188 11.714844 C 10.992188 11.839844 10.8125 11.886719 10.644531 11.84375 C 10.476562 11.800781 10.34375 11.667969 10.300781 11.5 C 10.257812 11.328125 10.304688 11.148438 10.429688 11.027344 L 13.394531 8.0625 L 10.429688 5.097656 C 10.289062 4.957031 10.246094 4.746094 10.324219 4.5625 C 10.398438 4.378906 10.582031 4.261719 10.78125 4.265625 Z M 10.78125 4.265625 "/>
</g>
</svg>
